src/components/Icon/assets/people.svg

<svg width="24" height="24" viewBox="0 0 24 24" fill="none" xmlns="http://www.w3.org/2000/svg">
<path fill-rule="evenodd" clip-rule="evenodd" d="M8.0002 5.00012C8.0002 6.10412 7.1042 7.00012 6.0002 7.00012C4.8952 7.00012 4.0002 6.10412 4.0002 5.00012C4.0002 3.89612 4.8952 3.00012 6.0002 3.00012C7.1042 3.00012 8.0002 3.89612 8.0002 5.00012ZM5.0002 16.0001H4.0002V8.00012H8.0002V16.0001H7.0002V21.0001H5.0002V16.0001ZM10.0002 16.0001H11.0002V21.0001H13.0002V16.0001H14.0002V8.00012H10.0002V16.0001ZM17.0002 16.0001H16.0002V8.00012H20.0002V16.0001H19.0002V21.0001H17.0002V16.0001ZM12.0002 7.00012C13.1042 7.00012 14.0002 6.10412 14.0002 5.00012C14.0002 3.89612 13.1042 3.00012 12.0002 3.00012C10.8952 3.00012 10.0002 3.89612 10.0002 5.00012C10.0002 6.10412 10.8952 7.00012 12.0002 7.00012ZM20.0002 5.00012C20.0002 6.10412 19.1042 7.00012 18.0002 7.00012C16.8952 7.00012 16.0002 6.10412 16.0002 5.00012C16.0002 3.89612 16.8952 3.00012 18.0002 3.00012C19.1042 3.00012 20.0002 3.89612 20.0002 5.00012Z" fill="#65676A"/>
</svg>

<svg xmlns="http://www.w3.org/2000/svg" width="24" height="24" viewBox="0 0 24 24">
    <path fill="#65676A" fill-rule="evenodd" d="M8 8v8H7v5H5v-5H4V8h4zm6 0v8h-1v5h-2v-5h-1V8h4zm6 0v8h-1v5h-2v-5h-1V8h4zM6 3c1.104 0 2 .896 2 2s-.896 2-2 2c-1.105 0-2-.896-2-2s.895-2 2-2zm6 0c1.104 0 2 .896 2 2s-.896 2-2 2c-1.105 0-2-.896-2-2s.895-2 2-2zm6 0c1.104 0 2 .896 2 2s-.896 2-2 2c-1.105 0-2-.896-2-2s.895-2 2-2z"/>
</svg>
